X:196
T:Miss Thompson's reel
R:reel
M:4/4
L:1/8
K:D
(3ABc|:d2 df edcB|A2 AB AGFE|DFAF DGBG|DFAF GFED|
d2 df edcB|A2 AB AGFE|DFAc dfec|1dfec d2 (3ABc:|2dfec d2 d2||
|:ecAc e2e2|fdAd f2f2|g2g2f2f2|edcB A2 _B2|
BGDG BdcB|AFDF AdcB|ABcd edce|1d2 dc d2 d2:|2d2 dc d2 (3ABc||
